src/icons/android-favorite-outline.svg

<?xml version="1.0" encoding="UTF-8"?>
<svg width="512px" height="512px" viewBox="0 0 512 512" version="1.1" xmlns="http://www.w3.org/2000/svg" xmlns:xlink="http://www.w3.org/1999/xlink">
    <!-- Generator: Sketch 62 (91390) - https://sketch.com -->
    <title>android-favorite-outline</title>
    <desc>Created with Sketch.</desc>
    <g id="android-favorite-outline" stroke="none" stroke-width="1" fill="none" fill-rule="evenodd">
        <path d="M328,101.85 C300,101.85 273.6,114.75 256,135.65 C238.4,114.75 212,101.85 184,101.85 C134.4,101.85 96,140.45 96,190.35 C96,251.55 150.4,300.65 232.8,376.25 L256,397.15 L279.2,376.25 C361.6,300.65 416,251.55 416,190.35 C416,140.45 377.6,101.85 328,101.85 Z M265.9,355.05 L262.7,358.05 L256.1,364.05 L249.5,358.05 L246.3,355.05 C207.5,319.45 174,288.75 151.9,261.25 C130.4,234.55 120.8,212.65 120.8,190.35 C120.8,172.75 127.3,156.55 139,144.75 C150.7,132.95 166.8,126.45 184.1,126.45 C204.2,126.45 224.1,135.85 237.3,151.45 L256,173.75 L274.8,151.35 C288,135.75 307.9,126.45 328,126.45 C345.4,126.45 361.4,132.95 373.1,144.75 C384.9,156.55 391.3,172.75 391.3,190.35 C391.3,212.65 381.7,234.55 360.2,261.25 C338.1,288.65 304.7,319.45 265.9,355.05 L265.9,355.05 Z" id="Shape" fill="#000000" fill-rule="nonzero"></path>
    </g>
</svg>

<svg xmlns="http://www.w3.org/2000/svg" width="512" height="512" viewBox="0 0 512 512">
    <path d="M328 101.85c-28 0-54.4 12.9-72 33.8-17.6-20.9-44-33.8-72-33.8-49.6 0-88 38.6-88 88.5 0 61.2 54.4 110.3 136.8 185.9l23.2 20.9 23.2-20.9c82.4-75.6 136.8-124.7 136.8-185.9 0-49.9-38.4-88.5-88-88.5zm-62.1 253.2l-3.2 3-6.6 6-6.6-6-3.2-3c-38.8-35.6-72.3-66.3-94.4-93.8-21.5-26.7-31.1-48.6-31.1-70.9 0-17.6 6.5-33.8 18.2-45.6 11.7-11.8 27.8-18.3 45.1-18.3 20.1 0 40 9.4 53.2 25l18.7 22.3 18.8-22.4c13.2-15.6 33.1-24.9 53.2-24.9 17.4 0 33.4 6.5 45.1 18.3 11.8 11.8 18.2 28 18.2 45.6 0 22.3-9.6 44.2-31.1 70.9-22.1 27.4-55.5 58.2-94.3 93.8z"/>
</svg>
